X:1
T:Vattene'o pigro
T:Giovanni Animuccia
T:Source : Primo libro delle Laude spirituali a tre voci---Roma---A.Gardano---1583. Editor : André Vierendeels (21/11/17). Notes : Original clefs : C1, C2, C4 Editorial accidentals above the staff
T:Vattene'o pigro
T:©
T:©
C:Giovanni Animuccia
Z:©
%%score [ 1 2 3 ]
L:1/8
Q:1/4=120
M:2/2
K:C
V:1 treble nm="Soprano" snm="S"
V:2 treble nm="Alto" snm="A"
V:3 treble-8 nm="Tenor" snm="T"
V:1
"^1)" G4 c2 c2 | B8 | A2 A4 B2 | G2 G2 A4 |[M:2/4] G4 :: z2 A2 |[M:2/2] A2 A2 A2 A2 | A6 A2 | %8
w: Vat- te- ne'o|pi-|gro van- ne'al-|la for- mi-|ca,|e|da vi- le'a- ni-|ma- l'e|
w: Poi che pec-|can-|do dal tuo|po- pil sta-|to,|e|dal- la glo- ria|tua ca-|
 G2 F2 E4 | E4 z2 G2 | G2 F2 G2 E2 | D3 E F2 G2 | A4 G2 G2 | E2 F2 D4 | C8 :| %15
w: par- go- let-|to, im-|pa- ra pro- vi-|denz' in- tel- *|let- to, et|in- tel- let-|to.|
w: du- to so-|i, giu-|ta- men- te dar|bru- t'im- pa- rar|de- i, im-|pa- rer de-|i|
V:2
"^2)""^1)" E4 E2 A2 | G8 | F2 F4 D2 |"^#" E2 G4 F2 |[M:2/4] G4 ::"^-natural" z2 F2 | %6
w: Vat- te- ne'o|pi-|gro van- ne'al-|la for- mi-|ca,|e|
w: Mi- ra lei,|che|non ha mae-|stro o du-|ce,|co-|
[M:2/2] F2 F2 F2 F2 | F6 F2 | E2 D2 C4 | C2 E2 E2 D2 | E2 C2 B,4- | B,2 B,2 D2 C2 | C3 D E2 D2 | %13
w: da vi- le'a- ni-|ma- l'e|par- go- let-|to, im- pa- ra|pro- vi- denz'|_ in tel- *|let- * to, et|
w: me te- men- do|in- no-|pit fu- tu-|ra, nell a- bon-|bon- de- ra'il|_ ci- bo suo|pro- cu- ro, suo|
 C2 C4 B,2 | C8 :| %15
w: in tel- let-|to.|
w: pro- cu- *|ro.|
V:3
"^3)""^1)""^4)" c4 A2 F2 | G8 | D2 d4 G2 | c2 e2 d4 |[M:2/4] G4 ::"^-natural" z2 F2 | %6
w: Vat- te- ne'o|pi-|gro van- ne'al-|la for- mi-|ca,|e|
w: All' hor, che'i|frut-|ti tuo la|ter- ra span-|de,|le|
[M:2/2] F2 F2 F2 F2 | F6 F2 | c2 d2 A4 | A2 c2 c2 B2 | c2 A2 G4- | G2 G2 F2 E2 | F2 GA Bc d2 | %13
w: da vi- le'a- ni-|ma l'e|par- go- let-|to, im- pa- ra|pro- vi- denz|_ in tel- *|let- * * to,- * et|
w: bia- de'ac- col- gie|sot- to'il|ad- do cie-|lo, poi lie- ta|go- de tra|_ le ne- vi|e'l ge- * * * lo,|
 A2 F2 G4 | C8 :| %15
w: in tel- let-|to.|
w: ne- vi'e'l ge-|lo.|

